X:1
T:Carlos Seixas - Toccata in G Major. {Professional production score.}
%%score { ( 1 4 ) | ( 2 3 ) }
L:1/8
Q:1/4=110
M:4/4
K:Bb
V:1 treble nm="Harpsichord" snm="Hch."
V:4 treble 
V:2 bass 
V:3 bass 
V:1
"^Allegro""^Toccata prima" z/ D/D/D/ G/D/A/D/ B/D/D/D/ B/D/c/D/ | %1
 d/D/D/D/ d/D/=e/=E/ ^f/^F/g/G/ a/A/b/B/ | ba/g/ ^f/=e/d/c/ B/d/G/B/ A/c/=E/^F/ | %3
{^F} G2- G/^F/G/A/{A} B2- B/A/G/^F/ |{^F} G2- G/^F/G/A/{A} B2- B/A/G/^F/ | %5
 G2- G/A/B/c/ d2- d/c/d/e/ | f2- f/e/f/B/ g/f/g/B/ f/e/f/B/ | e2- e/c/d/e/ f/e/f/B/ e/d/e/A/ | %8
 d/B/F/D/ b/B/b/B/ ^c/^C/c/C/ a/A/a/A/ | B/B,/B/B,/ g/G/g/G/ A,/A/A,/A/ F/f/F/f/ | %10
 E/e/E/e/ ^F/^f/F/f/ G/g/G/g/ G/g/G/g/ | [Gg] z [Gg] z z/ A/A/A/ =e/A/f/A/ | %12
 =e/A/A/A/ e/A/f/A/ e/A/A/A/ e/A/^f/A/ | g/G/G/G/ d/G/=e/G/ f/F/F/F/ ^c/F/d/F/ | %14
 =e/=E/E/E/ =B/E/^c/E/ d/E/_B/E/ A/E/^G/E/ | A/D/G/=E/ F/D/E/^C/ D/D,/F,/D,/ A/A,/C/A,/ | %16
 d/D/F/D/ a/A/^c/A/ d2 d2 | d2 d2 d'2 d'2 | d'2 d'2 d'/d/f/d/ b/B/d/B/ | %19
 c'/c/e/c/ a/A/c/A/ b/B/d/B/ g/G/B/G/ | a/A/c/A/ f/F/A/F/ g/B/d/B/ =e/=E/G/E/ | %21
 f/A/c/A/ d/D/F/D/ d/G/B/G/ [=EA^c]2 | d/D/ BAB Abab | aBAB A/ x/ x x2 | %24
 x/ D/ x/ =E/ x/ E/ x/ G/ x/ a/ x/ a/ x/ a/ x/ a/ | x/ A/ x/ A/ x/ A/ x/ A/ x4 | %26
 z/ D/D/D/ ^F/D/D/D/ A/D/D/D/ d/C/B,/A,/ |] z/ D/D/D/ G/D/A/D/ B/D/D/D/ B/D/c/D/ | %28
 d/D/D/D/ d/D/=e/=E/ ^f/^F/g/G/ a/A/b/B/ | ba/g/ ^f/=e/d/c/ B/d/G/B/ A/c/=E/^F/ | %30
{^F} G2- G/^F/G/A/{A} B2- B/A/G/^F/ |{^F} G2- G/^F/G/A/{A} B2- B/A/G/^F/ | %32
 G2- G/A/B/c/ d2- d/c/d/e/ | f2- f/e/f/B/ g/f/g/B/ f/e/f/B/ | e2- e/c/d/e/ f/e/f/B/ e/d/e/A/ | %35
 d/B/F/D/ b/B/b/B/ ^c/^C/c/C/ a/A/a/A/ | B/B,/B/B,/ g/G/g/G/ A,/A/A,/A/ F/f/F/f/ | %37
 E/e/E/e/ ^F/^f/F/f/ G/g/G/g/ G/g/G/g/ | [Gg] z [Gg] z z/ A/A/A/ =e/A/f/A/ | %39
 =e/A/A/A/ e/A/f/A/ e/A/A/A/ e/A/^f/A/ | g/G/G/G/ d/G/=e/G/ f/F/F/F/ ^c/F/d/F/ | %41
 =e/=E/E/E/ =B/E/^c/E/ d/E/_B/E/ A/E/^G/E/ | A/D/G/=E/ F/D/E/^C/ D/D,/F,/D,/ A/A,/C/A,/ | %43
 d/D/F/D/ a/A/^c/A/ d2 d2 | d2 d2 d'2 d'2 | d'2 d'2 d'/d/f/d/ b/B/d/B/ | %46
 c'/c/e/c/ a/A/c/A/ b/B/d/B/ g/G/B/G/ | a/A/c/A/ f/F/A/F/ g/B/d/B/ =e/=E/G/E/ | %48
 f/A/c/A/ d/D/F/D/ d/G/B/G/ [=EA^c]2 | d/D/ BAB Abab | aBAB A/ x/ x x2 | %51
 x/ D/ x/ =E/ x/ E/ x/ G/ x/ a/ x/ a/ x/ a/ x/ a/ | x/ A/ x/ A/ x/ A/ x/ A/ x4 | %53
 z/ D/D/D/ ^F/D/D/D/ A/D/D/D/ d/C/B,/A,/ |] z/ D/D/D/ G/D/A/D/ =B/D/D/D/ B/D/c/D/ | %55
 d/D/e/E/ f/F/g/G/ _a>g f/e/d/c/ | =B/_a/g/f/ d'/f/e/d/ f/g/c/e/ d/f/F/=B/ | %57
{=B} c2- c/_B/c/d/{d} e2- e/d/c/B/ |{=B} c2- c/_B/c/d/{d} e2- e/d/c/B/ | %59
 _a/g/a/c/ g/f/g/c/ f2- f/d/e/f/ | g/f/g/G/ f/e/f/G/ e/E/e/E/ c'/c/c'/c/ | %61
 ^f/^F/f/F/ g/G/g/G/ ^c/^C/c/C/ d/D/d/D/ | =c/c'/c/c'/ c/c'/c/c'/ c/c'/c/c'/ c/c'/c/c'/ | %63
 z/ d/d/d/ a/d/b/d/ a/d/d/d/ a/d/b/d/ | =a/d/d/d/ a/d/=b/d/ c'/d/d/d/ g/d/a/d/ | %65
 b/B/B/B/ ^f/B/B/B/ a/A/A/A/ =e/A/f/A/ | g/G/e/G/ d/G/^c/G/ d/G/=c/A/ B/G/A/^F/ | %67
 A/G,/B,/G,/ d/D/^F/D/ g/G/B/G/ d'/d/^f/d/ | g2 g2 g2 g2 | d'2 c'2 b2 a2 | %70
 g/B/d/B/ c/e/g/e/ f/A/c/A/ B/d/f/d/ | e/G/B/G/ A/c/e/c/ d/^f/a/d/ [Bdg]2 | %72
 !arpeggio![cegb]2 [cefa]2 !arpeggio![Bda]2 [Bdg]2 | !arpeggio![Acg]2 [Acd^f]2 g/G/ ede | %74
 d EDE D ede | d/G,/ x x2 x/ G/ x/ A/ x/ A/ x/ c/ | %76
 x/ d'/ x/ d'/ x/ d'/ x/ d'/ x/ d/ x/ d/ x/ d/ x/ d/ | x/ D/ x/ D/ x/ D/ x/ D/ x4 | %78
 z/ D/D/D/ G/D/D/D/ =B/G/G/G/ d/B/B/B/ |] z/ D/D/D/ G/D/A/D/ =B/D/D/D/ B/D/c/D/ | %80
 d/D/e/E/ f/F/g/G/ _a>g f/e/d/c/ | =B/_a/g/f/ d'/f/e/d/ f/g/c/e/ d/f/F/=B/ | %82
{=B} c2- c/_B/c/d/{d} e2- e/d/c/B/ |{=B} c2- c/_B/c/d/{d} e2- e/d/c/B/ | %84
 _a/g/a/c/ g/f/g/c/ f2- f/d/e/f/ | g/f/g/G/ f/e/f/G/ e/E/e/E/ c'/c/c'/c/ | %86
 ^f/^F/f/F/ g/G/g/G/ ^c/^C/c/C/ d/D/d/D/ | =c/c'/c/c'/ c/c'/c/c'/ c/c'/c/c'/ c/c'/c/c'/ | %88
 z/ d/d/d/ a/d/b/d/ a/d/d/d/ a/d/b/d/ | =a/d/d/d/ a/d/=b/d/ c'/d/d/d/ g/d/a/d/ | %90
 b/B/B/B/ ^f/B/B/B/ a/A/A/A/ =e/A/f/A/ | g/G/e/G/ d/G/^c/G/ d/G/=c/A/ B/G/A/^F/ | %92
 A/G,/B,/G,/ d/D/^F/D/ g/G/B/G/ d'/d/^f/d/ | g2 g2 g2 g2 | d'2 c'2 b2 a2 | %95
 g/B/d/B/ c/e/g/e/ f/A/c/A/ B/d/f/d/ | e/G/B/G/ A/c/e/c/ d/^f/a/d/ [Bdg]2 | %97
 !arpeggio![cegb]2 [cefa]2 !arpeggio![Bda]2 [Bdg]2 | !arpeggio![Acg]2 [Acd^f]2 g/G/ ede | %99
 d EDE D ede | d/G,/ x x2 x/ G/ x/ A/ x/ A/ x/ c/ | %101
 x/ d'/ x/ d'/ x/ d'/ x/ d'/ x/ d/ x/ d/ x/ d/ x/ d/ | %102
 x/ D/ x/ D/ x/ D/ x/ D/ x4[Q:1/4=100][Q:1/4=90][Q:1/4=80] | z8 |] %104
V:2
!f! G,2 z ^F, G,2 z A, | B,2 z C, D,=E,^F,G, | D,2 z ^F, G,B,,C,A,, | %3
 G,,/B,,/D,/G,/ B,2- B,/G,/D,/B,,/ G,,2- | G,,/B,,/D,/G,/ B,2- B,/G,/D,/B,,/ G,,2- | %5
 G,,/B,,/D,/G,/ B,2- B,/F,/D,/F,/ B,,2- | B,,/D,/F,/B,/ DD, E,ED,D | C/G,/E,/C,/ C,,2 D,DC,C | %8
 B,,2 P[G,,G,]2 P[A,,A,]2 P[F,,F,]2 | P[G,,G,]2 P[=E,,=E,]2 P[^C,,^C,]2 P[D,,D,]2 | %10
 P[G,,G,]2 P[A,,A,]2 B,,/B,/B,,/B,/ G,,/G,/G,,/G,/ | %11
 =E,,/=E,/E,,/E,/ ^C,,/^C,/C,,/C,/ [A,,^C,E,A,]2[K:treble] z F | =E2 z F E2[K:bass] =C2 | %13
 =B,2 _B,2 A,2 A,2 | ^G,2 =G,2 F,G,F,=E, | F,B,A,A,, D,,2 z2 | %16
 z2 z2 D,,/D,/F,/D,/ =E,,/=E,/G,/E,/ | D,,/F,/A,/F,/ D,,/G,/B,/G,/ D,,/F,/A,/F,/ D,,/G,/B,/G,/ | %18
 D,,/F,/A,/F,/ D,,/=E,/G,/_E,/ D,,/F,/A,/F,/ D,,/G,/B,/G,/ | %19
 =E,,/=E,/A,/E,/ F,,/F,/A,/F,/ D,,/D,/F,/D,/ E,,/E,/G,/E,/ | %20
 ^C,,/^C,/=E,/C,/ D,/D/F/D/ G,,/G,/B,/G,/ =C,/C/=E/C/ | %21
 F,,/F,/A,/F,/ B,,/B,/D/B,/ =E,,/=E,/G,/E,/ A,,/A,/^C/A,/ | D,,D, D,,D, D,,D, D,,D, | %23
 D,,D, D,,D, x/ D,/ x/ =E,/ x/ E,/ x/ G,/ | A,/ x/ x x2 x4 | x4 x/ A,/ x/ A,/ x/ A,/ x/ A,/ | %26
 D,,2 z2 z4 |]!f! G,2 z ^F, G,2 z A, | B,2 z C, D,=E,^F,G, | D,2 z ^F, G,B,,C,A,, | %30
 G,,/B,,/D,/G,/ B,2- B,/G,/D,/B,,/ G,,2- | G,,/B,,/D,/G,/ B,2- B,/G,/D,/B,,/ G,,2- | %32
 G,,/B,,/D,/G,/ B,2- B,/F,/D,/F,/ B,,2- | B,,/D,/F,/B,/ DD, E,ED,D | C/G,/E,/C,/ C,,2 D,DC,C | %35
 B,,2 P[G,,G,]2 P[A,,A,]2 P[F,,F,]2 | P[G,,G,]2 P[=E,,=E,]2 P[^C,,^C,]2 P[D,,D,]2 | %37
 P[G,,G,]2 P[A,,A,]2 B,,/B,/B,,/B,/ G,,/G,/G,,/G,/ | %38
 =E,,/=E,/E,,/E,/ ^C,,/^C,/C,,/C,/ [A,,^C,E,A,]2[K:treble] z F | =E2 z F E2[K:bass] =C2 | %40
 =B,2 _B,2 A,2 A,2 | ^G,2 =G,2 F,G,F,=E, | F,B,A,A,, D,,2 z2 | %43
 z2 z2 D,,/D,/F,/D,/ =E,,/=E,/G,/E,/ | D,,/F,/A,/F,/ D,,/G,/B,/G,/ D,,/F,/A,/F,/ D,,/G,/B,/G,/ | %45
 D,,/F,/A,/F,/ D,,/=E,/G,/_E,/ D,,/F,/A,/F,/ D,,/G,/B,/G,/ | %46
 =E,,/=E,/A,/E,/ F,,/F,/A,/F,/ D,,/D,/F,/D,/ E,,/E,/G,/E,/ | %47
 ^C,,/^C,/=E,/C,/ D,/D/F/D/ G,,/G,/B,/G,/ =C,/C/=E/C/ | %48
 F,,/F,/A,/F,/ B,,/B,/D/B,/ =E,,/=E,/G,/E,/ A,,/A,/^C/A,/ | D,,D, D,,D, D,,D, D,,D, | %50
 D,,D, D,,D, x/ D,/ x/ =E,/ x/ E,/ x/ G,/ | A,/ x/ x x2 x4 | x4 x/ A,/ x/ A,/ x/ A,/ x/ A,/ | %53
 D,,2 z2 z4 |] G,,2 z ^F, G,2 z A,, | =B,,C,D,=E, F,G,_A,F, | G,2 =B,2 CE,F,D, | %57
 C,/E,/G,/C/ E2- E/C/G,/E,/ C,2- | C,/E,/G,/C/ E2- E/C/G,/E,/ C,2 | F,FE,E D/=B,/G,/D,/ G,,2 | %60
 E,ED,D [C,E,G,C]2 E,2 | A,2 B,2 G,2 ^F,2 | z .E.C.A, .^F,.C.A,.F, | D,2 z B, A,2 z B, | %64
 A,2 =F,2 =E,2 _E,2 | D,2 D2 ^C2 =C2 | B,CB,A, B,CDD, | [G,,G,]2 z2 z4 | %68
 G,,/G,/B,/G,/ G,,/A,/C/A,/ G,,/B,/D/B,/ G,,/C/E/C/ | %69
 G,,/B,/D/B,/ G,,/C/E/C/ G,,/B,/D/B,/ G,,/A,/C/A,/ | %70
 G,,/G,/B,/G,/ C,/C/E/C/ F,,/F,/A,/F,/ B,,/B,/D/B,/ | %71
 E,,/E,/G,/E,/ A,,/A,/C/A,/ D,,/D,/^F,/D,/ G,,/G,/B,/G,/ | %72
 C,/C/E/C/ F,,/F,/A,/F,/ B,,/B,/D/B,/ E,,/E,/G,/E,/ | A,,/A,/C/A,/ D,,/D,/^F,/D,/ G,,G, G,,G, | %74
 A,,G, G,,G, G,,G, G,,G, | G,, x/ A,/ x/ A,/ x/ C/ x4 | x8 | x4 x/ D,/ x/ D,/ x/ D,/ x/ D,/ | %78
 G,4 z4 |] G,,2 z ^F, G,2 z A,, | =B,,C,D,=E, F,G,_A,F, | G,2 =B,2 CE,F,D, | %82
 C,/E,/G,/C/ E2- E/C/G,/E,/ C,2- | C,/E,/G,/C/ E2- E/C/G,/E,/ C,2 | F,FE,E D/=B,/G,/D,/ G,,2 | %85
 E,ED,D [C,E,G,C]2 E,2 | A,2 B,2 G,2 ^F,2 | z .E.C.A, .^F,.C.A,.F, | D,2 z B, A,2 z B, | %89
 A,2 =F,2 =E,2 _E,2 | D,2 D2 ^C2 =C2 | B,CB,A, B,CDD, | [G,,G,]2 z2 z4 | %93
 G,,/G,/B,/G,/ G,,/A,/C/A,/ G,,/B,/D/B,/ G,,/C/E/C/ | %94
 G,,/B,/D/B,/ G,,/C/E/C/ G,,/B,/D/B,/ G,,/A,/C/A,/ | %95
 G,,/G,/B,/G,/ C,/C/E/C/ F,,/F,/A,/F,/ B,,/B,/D/B,/ | %96
 E,,/E,/G,/E,/ A,,/A,/C/A,/ D,,/D,/^F,/D,/ G,,/G,/B,/G,/ | %97
 C,/C/E/C/ F,,/F,/A,/F,/ B,,/B,/D/B,/ E,,/E,/G,/E,/ | A,,/A,/C/A,/ D,,/D,/^F,/D,/ G,,G, G,,G, | %99
 A,,G, G,,G, G,,G, G,,G, | G,, x/ A,/ x/ A,/ x/ C/ x4 | x8 | x4 x/ D,/ x/ D,/ x/ D,/ x/ D,/ | %103
 G,4 z4 |] %104
V:3
 x8 | x8 | x8 | x8 | x8 | x8 | x8 | x8 | x8 | x8 | x8 | x6[K:treble] x D | %12
 ^C2 x D ^C2[K:bass] C,2 | =B,,2 _B,,2 A,,2 A,,2 | ^G,,2 =G,,2 x4 | x8 | x8 | x8 | x8 | x8 | x8 | %21
 x8 | x8 | x4 D,,D,/ x/ ^F,/ x/ F,/ x/ | x8 | x5 A,/ x/ ^F,/ x/ A,/ x/ | x8 |] x8 | x8 | x8 | x8 | %31
 x8 | x8 | x8 | x8 | x8 | x8 | x8 | x6[K:treble] x D | ^C2 x D ^C2[K:bass] C,2 | %40
 =B,,2 _B,,2 A,,2 A,,2 | ^G,,2 =G,,2 x4 | x8 | x8 | x8 | x8 | x8 | x8 | x8 | x8 | %50
 x4 D,,D,/ x/ ^F,/ x/ F,/ x/ | x8 | x5 A,/ x/ ^F,/ x/ A,/ x/ | x8 |] x8 | x8 | x8 | x8 | x8 | x8 | %60
 x6 E,,2 | A,,2 B,,2 G,,2 ^F,,2 | z .E,.C,.A,, .^F,,.C,.A,,.F,, | D,,2 z G, ^F,2 z G, | %64
 ^F,2 F,,2 =E,,2 _E,,2 | D,,2 D,2 ^C,2 =C,2 | x8 | x8 | x8 | x8 | x8 | x8 | x8 | x8 | x8 | %75
 x G,/ x/ =B,/ x/ C/ x/ D/ x7/2 | x8 | x4 G,/ x/ D,/ x/ =B,,/ x/ D,/ x/ | G,,4 x4 |] x8 | x8 | x8 | %82
 x8 | x8 | x8 | x6 E,,2 | A,,2 B,,2 G,,2 ^F,,2 | z .E,.C,.A,, .^F,,.C,.A,,.F,, | %88
 D,,2 z G, ^F,2 z G, | ^F,2 F,,2 =E,,2 _E,,2 | D,,2 D,2 ^C,2 =C,2 | x8 | x8 | x8 | x8 | x8 | x8 | %97
 x8 | x8 | x8 | x G,/ x/ =B,/ x/ C/ x/ D/ x7/2 | x8 | x4 G,/ x/ D,/ x/ =B,,/ x/ D,/ x/ | G,,4 x4 |] %104
V:4
 x8 | x8 | x8 | x8 | x8 | x8 | x8 | x8 | x8 | x8 | x8 | x8 | x8 | x8 | x8 | x8 | x4 D2 D2 | %17
 D2 D2 d2 d2 | d2 d2 x4 | x8 | x8 | x8 | x G/D/ ^F/D/G/D/ F/D/g/d/ ^f/d/g/d/ | %23
 ^f/d/G/D/ ^F/D/G/D/ ^F/ x7/2 | x D/ x/ ^F/ x/ F/ x/ A/ x/ a/ x/ ^f/ x/ a/ x/ | %25
 d/ x/ A/ x/ ^F/ x/ A/ x/ D/ x7/2 | x8 |] x8 | x8 | x8 | x8 | x8 | x8 | x8 | x8 | x8 | x8 | x8 | %38
 x8 | x8 | x8 | x8 | x8 | x4 D2 D2 | D2 D2 d2 d2 | d2 d2 x4 | x8 | x8 | x8 | %49
 x G/D/ ^F/D/G/D/ F/D/g/d/ ^f/d/g/d/ | ^f/d/G/D/ ^F/D/G/D/ ^F/ x7/2 | %51
 x D/ x/ ^F/ x/ F/ x/ A/ x/ a/ x/ ^f/ x/ a/ x/ | d/ x/ A/ x/ ^F/ x/ A/ x/ D/ x7/2 | x8 |] x8 | x8 | %56
 x8 | x8 | x8 | x8 | x8 | x8 | x8 | x8 | x8 | x8 | x8 | x8 | G2 G2 G2 G2 | d2 c2 B2 A2 | x8 | x8 | %72
 x8 | x5 c/G/ =B/G/c/G/ | =B/G/ C/G,/ =B,/G,/C/G,/ =B,/G,/ c/G/ =B/G/c/G/ | x5 G/ x/ =B/ x/ B/ x/ | %76
 d/ x/ d'/ x/ =b/ x/ d'/ x/ g/ x/ d/ x/ =B/ x/ d/ x/ | G/ x/ D/ x/ =B,/ x/ D/ x9/2 | x8 |] x8 | %80
 x8 | x8 | x8 | x8 | x8 | x8 | x8 | x8 | x8 | x8 | x8 | x8 | x8 | G2 G2 G2 G2 | d2 c2 B2 A2 | x8 | %96
 x8 | x8 | x5 c/G/ =B/G/c/G/ | =B/G/ C/G,/ =B,/G,/C/G,/ =B,/G,/ c/G/ =B/G/c/G/ | %100
 x5 G/ x/ =B/ x/ B/ x/ | d/ x/ d'/ x/ =b/ x/ d'/ x/ g/ x/ d/ x/ =B/ x/ d/ x/ | %102
 G/ x/ D/ x/ =B,/ x/ D/ x9/2 | x8 |] %104

